!!!OTL@@FUR: La puarte siarade
!!!OTL@IT: La porta &egrave; chiusa
!!!OTL@EN: The door is closed
**kern
*clefG2
*k[b-]
*F:
*M3/4
*MM160
*>[A,A]
*>A
4c
=1
4f
4a
4f
=2
4g
4.b-
8c
=3
4g
4b-
4e
=4
2f
4c
=5
4f
4a
4f
=6
4g
4.b-
8c
=7
4g
4b-
4e
=8
4.f
8r
4cc
=9
4cc
4dd
4ff
=10
4ee
4.ee
8dd
=13
4b-
4cc
4dd
=14
2dd
4cc
=15
4a
4b-
4cc
=16
4cc
4b-
4a
=17
4g
4a
4b-
=18
2a
4cc
=19
4cc
4dd
4ff
=20
4ee
4.ee
8dd
=21
4b-
4cc
4dd
=22
2dd
4cc
=23
4a
4b-
4cc
=24
4cc
4b-
4a
=25
4g
4a
4b-
=26
[2.a
=27
4a]
4r
==:|!
*-
!!!ARE: Friuli
!!!ENC: Kelly Leistikow
!!!END: 2002/03/07
!!!ref: @{OTL@@FUR}/@{OTL@EN}
